svg/fluentui-system-icons/ic_fluent_slide_text_sparkle_48_filled.svg

<svg width="48" height="48" viewBox="0 0 48 48" fill="none" xmlns="http://www.w3.org/2000/svg">
<path d="M32.8334 13.1121C32.6968 12.9356 32.549 12.7674 32.3906 12.6085C31.801 12.017 31.0811 11.5715 30.2885 11.3074L27.686 10.4622C27.4854 10.3915 27.3117 10.2603 27.1888 10.0868C27.066 9.91335 27 9.70604 27 9.4935C27 9.28096 27.066 9.07365 27.1888 8.90016C27.3117 8.72666 27.4854 8.59552 27.686 8.52481L30.2885 7.67964C31.0701 7.40998 31.7786 6.96332 32.3588 6.37459C32.923 5.802 33.3509 5.11012 33.6111 4.35036L33.6327 4.28598L34.4785 1.68547C34.5493 1.48503 34.6805 1.31147 34.8542 1.1887C35.0278 1.06593 35.2352 1 35.448 1C35.6607 1 35.8681 1.06593 36.0417 1.1887C36.2154 1.31147 36.3466 1.48503 36.4174 1.68547L37.2632 4.28598C37.5262 5.07658 37.9701 5.79499 38.5597 6.38412C39.1493 6.97324 39.8682 7.41683 40.6595 7.67964L43.262 8.52481L43.314 8.53781C43.5146 8.60852 43.6883 8.73966 43.8112 8.91316C43.934 9.08665 44 9.29396 44 9.5065C44 9.71904 43.934 9.92635 43.8112 10.0998C43.6883 10.2733 43.5146 10.4045 43.314 10.4752L40.7115 11.3204C39.9203 11.5832 39.2013 12.0268 38.6118 12.6159C38.0222 13.205 37.5783 13.9234 37.3152 14.714L36.4694 17.3145C36.4618 17.3362 36.4535 17.3575 36.4444 17.3784C36.3699 17.5518 36.2487 17.7018 36.0938 17.8113C35.9202 17.9341 35.7127 18 35.5 18C35.2873 18 35.0798 17.9341 34.9062 17.8113C34.7326 17.6885 34.6013 17.515 34.5306 17.3145L33.6848 14.714C33.4937 14.134 33.2053 13.5925 32.8334 13.1121ZM47.6093 19.9837L46.2315 19.5363C45.8126 19.3971 45.432 19.1623 45.1199 18.8504C44.8077 18.5385 44.5727 18.1582 44.4335 17.7396L43.9857 16.3629C43.9482 16.2568 43.8787 16.1649 43.7868 16.0999C43.6949 16.0349 43.5851 16 43.4724 16C43.3598 16 43.25 16.0349 43.1581 16.0999C43.0662 16.1649 42.9967 16.2568 42.9592 16.3629L42.5114 17.7396C42.375 18.1553 42.1441 18.5337 41.837 18.8454C41.5299 19.1571 41.1547 19.3935 40.741 19.5363L39.3632 19.9837C39.257 20.0212 39.165 20.0906 39.1 20.1824C39.0349 20.2743 39 20.384 39 20.4966C39 20.6091 39.0349 20.7188 39.1 20.8107C39.165 20.9025 39.257 20.972 39.3632 21.0094L40.741 21.4568C40.8924 21.5073 41.0387 21.5702 41.1787 21.6448L41.1816 21.66C41.4276 21.7913 41.6536 21.9585 41.852 22.1569C42.1645 22.4694 42.3997 22.8505 42.5388 23.27L42.9868 24.647C43.0243 24.7531 43.0937 24.845 43.1856 24.9101C43.2775 24.9751 43.3873 25.01 43.4998 25.01C43.6124 25.01 43.7222 24.9751 43.8141 24.9101C43.8946 24.8531 43.958 24.7754 43.9976 24.6855L43.9974 24.6768C44.0032 24.6638 44.0085 24.6506 44.0132 24.6371L44.461 23.2604C44.6003 22.8418 44.8353 22.4615 45.1474 22.1496C45.4595 21.8377 45.8402 21.6029 46.259 21.4637L47.6368 21.0163C47.743 20.9788 47.835 20.9094 47.9 20.8176C47.9651 20.7257 48 20.616 48 20.5034C48 20.3909 47.9651 20.2812 47.9 20.1893C47.835 20.0975 47.743 20.028 47.6368 19.9906L47.6093 19.9837ZM25.4101 8C25.2212 8.32129 25.0933 8.6757 25.034 9.04529C24.9602 9.50528 24.9945 9.97615 25.1342 10.4206C25.274 10.865 25.5153 11.2708 25.8391 11.6058C26.1628 11.9408 26.5602 12.1957 26.9996 12.3505L29.6496 13.2105C30.1568 13.3611 30.6199 13.6321 30.9996 14.0005C31.101 14.0998 31.1946 14.2068 31.2796 14.3205C31.5171 14.6194 31.7 14.9579 31.8196 15.3205L32.6596 17.9105C32.8615 18.5208 33.2542 19.0501 33.7796 19.4205C34.2867 19.78 34.893 19.9731 35.5146 19.9731C36.1362 19.9731 36.7425 19.78 37.2496 19.4205C37.1055 19.7342 37.0305 20.0752 37.0296 20.4205C37.0305 20.9471 37.1944 21.4605 37.4988 21.8902C37.8032 22.32 38.2331 22.6449 38.7296 22.8205L40.1496 23.2805L40.2696 23.3405C40.3423 23.3819 40.4095 23.4323 40.4696 23.4905C40.5604 23.5839 40.6288 23.6967 40.6696 23.8205L41.1096 25.1905C41.2513 25.7254 41.5638 26.1994 41.9996 26.5405C42.3078 26.7577 42.6604 26.9039 43.0318 26.9685C43.3532 27.0244 43.6819 27.018 44 26.9503V35.25C44 37.8734 41.8734 40 39.25 40H8.75C6.12665 40 4 37.8734 4 35.25V12.75C4 10.1266 6.12665 8 8.75 8H25.4101ZM12 23.75C12 24.4404 12.5596 25 13.25 25H30.75C31.4404 25 32 24.4404 32 23.75C32 23.0596 31.4404 22.5 30.75 22.5H13.25C12.5596 22.5 12 23.0596 12 23.75ZM13.25 31.5H26.75C27.4404 31.5 28 30.9404 28 30.25C28 29.5596 27.4404 29 26.75 29H13.25C12.5596 29 12 29.5596 12 30.25C12 30.9404 12.5596 31.5 13.25 31.5ZM12 17.25C12 17.9404 12.5596 18.5 13.25 18.5H22.75C23.4404 18.5 24 17.9404 24 17.25C24 16.5596 23.4404 16 22.75 16H13.25C12.5596 16 12 16.5596 12 17.25Z" fill="#212121"/>
</svg>

<svg xmlns="http://www.w3.org/2000/svg" width="48" height="48"><path d="M32.833 13.112a5.36 5.36 0 0 0-2.544-1.805l-2.603-.845a1.028 1.028 0 0 1 0-1.937l2.602-.845a5.362 5.362 0 0 0 3.323-3.33l.022-.064.845-2.6a1.027 1.027 0 0 1 1.94 0l.845 2.6A5.356 5.356 0 0 0 40.66 7.68l2.602.845.052.013a1.028 1.028 0 0 1 0 1.937l-2.602.845a5.361 5.361 0 0 0-3.397 3.394l-.846 2.6a1.027 1.027 0 0 1-1.563.497 1.027 1.027 0 0 1-.375-.497l-.846-2.6a5.354 5.354 0 0 0-.852-1.602Zm14.776 6.872-1.378-.448a2.839 2.839 0 0 1-1.797-1.796l-.448-1.377a.544.544 0 0 0-1.027 0l-.448 1.377a2.835 2.835 0 0 1-1.77 1.796l-1.378.448a.545.545 0 0 0 0 1.025l1.378.448c.151.05.298.113.438.188l.003.015a2.837 2.837 0 0 1 1.357 1.61l.448 1.377a.545.545 0 0 0 1.01.039v-.01a.504.504 0 0 0 .016-.039l.448-1.377a2.837 2.837 0 0 1 1.798-1.796l1.378-.448a.545.545 0 0 0 0-1.025l-.028-.007ZM25.41 8A3 3 0 0 0 27 12.35l2.65.86c.507.151.97.422 1.35.79.101.1.195.207.28.32.237.3.42.638.54 1l.84 2.59a3 3 0 0 0 1.12 1.51 3 3 0 0 0 3.47 0 2.41 2.41 0 0 0-.22 1 2.55 2.55 0 0 0 1.7 2.4l1.42.46.12.06c.072.042.14.092.2.15a.86.86 0 0 1 .2.33l.44 1.37a2.54 2.54 0 0 0 .89 1.35 2.55 2.55 0 0 0 2 .41v8.3A4.75 4.75 0 0 1 39.25 40H8.75A4.75 4.75 0 0 1 4 35.25v-22.5A4.75 4.75 0 0 1 8.75 8h16.66ZM12 23.75c0 .69.56 1.25 1.25 1.25h17.5a1.25 1.25 0 1 0 0-2.5h-17.5c-.69 0-1.25.56-1.25 1.25Zm1.25 7.75h13.5a1.25 1.25 0 1 0 0-2.5h-13.5a1.25 1.25 0 1 0 0 2.5ZM12 17.25c0 .69.56 1.25 1.25 1.25h9.5a1.25 1.25 0 1 0 0-2.5h-9.5c-.69 0-1.25.56-1.25 1.25Z"/></svg>
